icons/subscript.svg

<svg xmlns="http://www.w3.org/2000/svg" width="24" height="24" fill="none"><g clip-path="url(#a)"><g><path fill="#121212" d="M5.596 4L10.5 9.928L15.404 4H18L11.798 11.497L18 18.994V19H15.41L10.5 13.066L5.59 19H3V18.994L9.202 11.497L3 4H5.596ZM21.55 16.58C21.6529 16.4823 21.7279 16.359 21.7675 16.2227C21.807 16.0865 21.8096 15.9421 21.7749 15.8046C21.7403 15.667 21.6697 15.5411 21.5703 15.4398C21.471 15.3385 21.3465 15.2654 21.2096 15.2281C21.0727 15.1907 20.9284 15.1905 20.7914 15.2273C20.6544 15.2642 20.5296 15.3368 20.4299 15.4377C20.3302 15.5387 20.2592 15.6643 20.224 15.8018C20.1889 15.9393 20.191 16.0836 20.23 16.22L19.075 16.55C18.99 16.2522 18.9753 15.9387 19.0321 15.6342C19.0889 15.3297 19.2156 15.0426 19.4022 14.7954C19.5888 14.5482 19.8302 14.3477 20.1075 14.2097C20.3848 14.0717 20.6903 13.9999 21 14C21.4004 14.0001 21.7916 14.1203 22.1229 14.3451C22.4542 14.57 22.7104 14.8891 22.8583 15.2612C23.0062 15.6333 23.039 16.0412 22.9525 16.4321C22.866 16.8231 22.6641 17.1791 22.373 17.454L20.744 19H23V20H19V19L21.55 16.58Z"/></g></g><defs><clipPath id="a"><rect width="24" height="24" fill="white"/></clipPath></defs></svg>

<svg width="24" height="24" fill="none" xmlns="http://www.w3.org/2000/svg"><g clip-path="url(#a)"><path d="M5.596 4 10.5 9.928 15.404 4H18l-6.202 7.497L18 18.994V19h-2.59l-4.91-5.934L5.59 19H3v-.006l6.202-7.497L3 4h2.596ZM21.55 16.58a.8.8 0 1 0-1.32-.36l-1.155.33a2 2 0 1 1 3.298.904L20.744 19H23v1h-4v-1l2.55-2.42Z" /></g><defs><clipPath id="a"><path fill="#fff" d="M0 0h24v24H0z"/></clipPath></defs></svg>
